picto/shopping.svg

<svg class="color-immutable" width="24" height="24" viewBox="0 0 24 24" fill="none" xmlns="http://www.w3.org/2000/svg"><path d="M0 22.5V1.5C0 0.675 0.675 0 1.5 0H22.5C23.325 0 24 0.675 24 1.5V22.5C24 23.325 23.325 24 22.5 24H1.5C0.675 24 0 23.325 0 22.5Z" fill="#2D327D"/><path d="M13.796 20.094L13.382 11.031C13.361 10.567 12.979 10.201 12.514 10.201H10.556V9.66098C10.556 8.46798 9.589 7.50098 8.396 7.50098C7.203 7.50098 6.236 8.46798 6.236 9.66098V10.201H4.279C3.814 10.201 3.431 10.567 3.411 11.031L2.998 20.094C2.987 20.331 3.074 20.561 3.238 20.733C3.402 20.904 3.628 21.001 3.865 21.001H12.928C13.165 21.001 13.391 20.904 13.555 20.733C13.72 20.562 13.807 20.331 13.796 20.094ZM7.452 9.66098C7.452 9.13898 7.875 8.71598 8.397 8.71598C8.919 8.71598 9.342 9.13898 9.342 9.66098V10.201H7.452V9.66098ZM4.791 19.246L5.128 11.956H6.237V13.103C6.237 13.438 6.509 13.71 6.844 13.71C7.18 13.71 7.452 13.438 7.452 13.103V11.956H9.342V13.103C9.342 13.438 9.614 13.71 9.949 13.71C10.284 13.71 10.556 13.438 10.556 13.103V11.956H11.665L12.002 19.246H4.791Z" fill="white"/><path d="M4.961 3.66598H4.493C4.484 3.55598 4.443 3.47198 4.371 3.41498C4.299 3.35698 4.197 3.32798 4.067 3.32798C3.951 3.32798 3.861 3.35098 3.797 3.39598C3.733 3.44198 3.701 3.50598 3.701 3.58798C3.701 3.66198 3.732 3.71498 3.793 3.74798C3.852 3.78098 4.003 3.82698 4.245 3.88598C4.501 3.94998 4.678 4.01398 4.776 4.07798C4.957 4.19698 5.048 4.36298 5.048 4.57498C5.048 4.80798 4.957 4.99098 4.774 5.12598C4.614 5.24398 4.396 5.30298 4.121 5.30298C3.815 5.30298 3.578 5.23298 3.409 5.09398C3.24 4.95398 3.152 4.75498 3.146 4.49798H3.635C3.642 4.62298 3.674 4.71598 3.732 4.77598C3.822 4.87198 3.958 4.92098 4.14 4.92098C4.263 4.92098 4.36 4.89698 4.432 4.84898C4.513 4.79398 4.554 4.71798 4.554 4.62298C4.554 4.52798 4.496 4.45798 4.382 4.41298C4.32 4.38898 4.172 4.34398 3.939 4.27998C3.794 4.23998 3.68 4.20198 3.598 4.16598C3.516 4.12998 3.45 4.08998 3.401 4.04598C3.286 3.94298 3.229 3.80198 3.229 3.62098C3.229 3.40498 3.319 3.23298 3.498 3.10698C3.651 2.99998 3.849 2.94598 4.093 2.94598C4.307 2.94598 4.487 2.98898 4.631 3.07398C4.84 3.19598 4.949 3.39298 4.961 3.66598Z" fill="white"/><path d="M5.78798 3V3.8C5.83698 3.712 5.90698 3.643 5.99798 3.593C6.08898 3.543 6.18898 3.518 6.29898 3.518C6.52398 3.518 6.68498 3.597 6.78198 3.756C6.83798 3.848 6.86698 3.99 6.86698 4.181V5.248H6.42198V4.261C6.42198 4.138 6.40498 4.053 6.37098 4.006C6.32098 3.936 6.24198 3.901 6.13598 3.901C5.99598 3.901 5.89498 3.963 5.83498 4.086C5.81598 4.124 5.80398 4.165 5.79698 4.21C5.79098 4.256 5.78798 4.328 5.78798 4.427V5.248H5.34198V3H5.78798Z" fill="white"/><path d="M8.01501 3.52301C8.25901 3.52301 8.45801 3.60401 8.61301 3.76601C8.76601 3.92601 8.84201 4.13901 8.84201 4.40601C8.84201 4.68201 8.76001 4.90201 8.59701 5.06601C8.44501 5.21801 8.24701 5.29501 8.00101 5.29501C7.74001 5.29501 7.53101 5.21001 7.37701 5.04001C7.22901 4.87701 7.15601 4.66701 7.15601 4.40901C7.15601 4.15501 7.22801 3.94801 7.37101 3.78901C7.53001 3.61201 7.74501 3.52301 8.01501 3.52301ZM7.99201 3.87101C7.87401 3.87101 7.78001 3.91901 7.71101 4.01401C7.64001 4.11001 7.60501 4.24201 7.60501 4.40901C7.60501 4.58201 7.64001 4.71501 7.71001 4.80701C7.78201 4.90001 7.88001 4.94701 8.00401 4.94701C8.12001 4.94701 8.21201 4.90401 8.27901 4.81901C8.35601 4.72501 8.39401 4.58801 8.39401 4.40801C8.39401 4.24001 8.36001 4.10901 8.29201 4.01601C8.22101 3.91901 8.12101 3.87101 7.99201 3.87101Z" fill="white"/><path d="M9.55501 3.572V3.784C9.67701 3.609 9.847 3.521 10.064 3.521C10.28 3.521 10.455 3.604 10.588 3.77C10.721 3.934 10.788 4.15 10.788 4.419C10.788 4.67 10.729 4.875 10.611 5.033C10.48 5.21 10.302 5.299 10.079 5.299C9.86401 5.299 9.696 5.212 9.576 5.039V5.856H9.13V3.572H9.55501ZM9.94401 3.904C9.82701 3.904 9.734 3.949 9.664 4.039C9.594 4.129 9.56001 4.255 9.56001 4.417C9.56001 4.584 9.596 4.713 9.669 4.803C9.739 4.89 9.834 4.934 9.955 4.934C10.074 4.934 10.167 4.891 10.233 4.805C10.304 4.713 10.339 4.587 10.339 4.428C10.339 4.261 10.303 4.131 10.231 4.037C10.165 3.948 10.069 3.904 9.94401 3.904Z" fill="white"/><path d="M11.479 3.572V3.784C11.601 3.609 11.771 3.521 11.988 3.521C12.204 3.521 12.379 3.604 12.512 3.77C12.645 3.934 12.712 4.15 12.712 4.419C12.712 4.67 12.653 4.875 12.535 5.033C12.404 5.21 12.226 5.299 12.003 5.299C11.788 5.299 11.62 5.212 11.5 5.039V5.856H11.054V3.572H11.479ZM11.868 3.904C11.751 3.904 11.658 3.949 11.588 4.039C11.518 4.128 11.483 4.254 11.483 4.416C11.483 4.583 11.519 4.712 11.592 4.802C11.662 4.889 11.757 4.933 11.878 4.933C11.997 4.933 12.09 4.89 12.156 4.804C12.227 4.712 12.262 4.586 12.262 4.427C12.262 4.26 12.226 4.13 12.154 4.036C12.089 3.948 11.993 3.904 11.868 3.904Z" fill="white"/><path d="M13.439 3V3.401H12.993V3H13.439ZM13.439 3.572V5.249H12.993V3.572H13.439Z" fill="white"/><path d="M14.218 3.57397V3.80897C14.27 3.73697 14.319 3.68397 14.364 3.65097C14.475 3.56497 14.608 3.52197 14.764 3.52197C14.901 3.52197 15.018 3.55697 15.113 3.62697C15.189 3.68197 15.242 3.75197 15.272 3.83697C15.302 3.92197 15.317 4.04097 15.317 4.19497V5.24997H14.872V4.28697C14.872 4.17897 14.863 4.09997 14.844 4.04997C14.827 4.00597 14.797 3.97097 14.755 3.94497C14.707 3.91697 14.652 3.90297 14.59 3.90297C14.522 3.90297 14.461 3.91897 14.405 3.95197C14.35 3.98497 14.309 4.02897 14.282 4.08597C14.252 4.14997 14.237 4.24897 14.237 4.38297V5.24697H13.791V3.57397H14.218Z" fill="white"/><path d="M17.235 3.56897V5.04897C17.235 5.17997 17.227 5.28497 17.21 5.36397C17.194 5.44297 17.165 5.51397 17.125 5.57897C16.996 5.78397 16.764 5.88697 16.43 5.88697C15.964 5.88697 15.71 5.71097 15.666 5.35897H16.115C16.146 5.49897 16.254 5.56997 16.44 5.56997C16.582 5.56997 16.68 5.52997 16.737 5.44997C16.781 5.38597 16.803 5.28397 16.803 5.14197L16.805 4.93397C16.69 5.10997 16.524 5.19897 16.307 5.19897C16.097 5.19897 15.929 5.12497 15.804 4.97797C15.677 4.82797 15.613 4.62597 15.613 4.37197C15.613 4.11797 15.677 3.91397 15.804 3.75997C15.936 3.60097 16.11 3.52197 16.325 3.52197C16.437 3.52197 16.53 3.54297 16.605 3.58497C16.68 3.62697 16.749 3.69697 16.811 3.79597V3.56897H17.235ZM16.424 3.88597C16.299 3.88597 16.204 3.93797 16.139 4.04297C16.087 4.12697 16.061 4.23397 16.061 4.36297C16.061 4.52697 16.099 4.65197 16.175 4.73697C16.241 4.81297 16.326 4.85097 16.432 4.85097C16.565 4.85097 16.665 4.79497 16.732 4.68297C16.783 4.59697 16.809 4.48797 16.809 4.35697C16.809 4.19897 16.77 4.07697 16.691 3.99097C16.626 3.92097 16.537 3.88597 16.424 3.88597Z" fill="white"/></svg>

<svg class="color-immutable" width="24" height="24" viewBox="0 0 24 24" fill="none" xmlns="http://www.w3.org/2000/svg"><g clip-path="url(#a)"><path d="M0 22.5v-21C0 .675.675 0 1.5 0h21c.825 0 1.5.675 1.5 1.5v21c0 .825-.675 1.5-1.5 1.5h-21C.675 24 0 23.325 0 22.5Z" fill="#2D327D"/><path d="m13.796 20.094-.414-9.063a.869.869 0 0 0-.868-.83h-1.958v-.54a2.16 2.16 0 1 0-4.32 0v.54H4.279a.868.868 0 0 0-.868.83l-.413 9.063a.867.867 0 0 0 .867.907h9.063a.868.868 0 0 0 .868-.907ZM7.452 9.661a.945.945 0 1 1 1.89 0v.54h-1.89v-.54Zm-2.661 9.585.337-7.29h1.109v1.147a.607.607 0 0 0 1.215 0v-1.147h1.89v1.147a.607.607 0 0 0 1.214 0v-1.147h1.109l.337 7.29H4.791ZM4.961 3.666h-.468a.34.34 0 0 0-.122-.251.474.474 0 0 0-.304-.087.464.464 0 0 0-.27.068.223.223 0 0 0-.096.192c0 .074.031.127.092.16.059.033.21.079.452.138.256.064.433.128.531.192a.564.564 0 0 1 .272.497.647.647 0 0 1-.274.551c-.16.118-.378.177-.653.177-.306 0-.543-.07-.712-.209-.169-.14-.257-.339-.263-.596h.489c.007.125.039.218.097.278.09.096.226.145.408.145a.52.52 0 0 0 .292-.072.26.26 0 0 0 .122-.226c0-.095-.058-.165-.172-.21a6.039 6.039 0 0 0-.443-.133 2.623 2.623 0 0 1-.341-.114.74.74 0 0 1-.197-.12.54.54 0 0 1-.172-.425c0-.216.09-.388.269-.514.153-.107.351-.161.595-.161.214 0 .394.043.538.128.209.122.318.319.33.592ZM5.788 3v.8a.523.523 0 0 1 .21-.207.614.614 0 0 1 .301-.075c.225 0 .386.079.483.238.056.092.085.234.085.425v1.067h-.445v-.987c0-.123-.017-.208-.051-.255-.05-.07-.129-.105-.235-.105a.311.311 0 0 0-.301.185.417.417 0 0 0-.038.124 1.858 1.858 0 0 0-.009.217v.821h-.446V3h.446ZM8.015 3.523a.79.79 0 0 1 .598.243c.153.16.229.373.229.64 0 .276-.082.496-.245.66a.806.806 0 0 1-.596.229c-.261 0-.47-.085-.624-.255-.148-.163-.221-.373-.221-.631 0-.254.072-.461.215-.62.159-.177.374-.266.644-.266Zm-.023.348a.33.33 0 0 0-.281.143.652.652 0 0 0-.106.395c0 .173.035.306.105.398.072.093.17.14.294.14a.332.332 0 0 0 .275-.128c.077-.094.115-.231.115-.411 0-.168-.034-.299-.102-.392a.35.35 0 0 0-.3-.145ZM9.555 3.572v.212a.587.587 0 0 1 .509-.263.64.64 0 0 1 .524.249c.133.164.2.38.2.649 0 .251-.059.456-.177.614a.629.629 0 0 1-.532.266.579.579 0 0 1-.503-.26v.817H9.13V3.572h.425Zm.389.332a.336.336 0 0 0-.28.135c-.07.09-.104.216-.104.378 0 .167.036.296.109.386.07.087.165.131.286.131a.33.33 0 0 0 .278-.129.603.603 0 0 0 .106-.377c0-.167-.036-.297-.108-.391a.335.335 0 0 0-.287-.133ZM11.479 3.572v.212a.587.587 0 0 1 .509-.263.64.64 0 0 1 .524.249c.133.164.2.38.2.649 0 .251-.059.456-.177.614a.629.629 0 0 1-.532.266.579.579 0 0 1-.503-.26v.817h-.446V3.572h.425Zm.389.332a.336.336 0 0 0-.28.135c-.07.089-.105.215-.105.377 0 .167.036.296.109.386.07.087.165.131.286.131a.33.33 0 0 0 .278-.129.603.603 0 0 0 .106-.377c0-.167-.036-.297-.108-.391a.334.334 0 0 0-.286-.132ZM13.439 3v.401h-.446V3h.446Zm0 .572v1.677h-.446V3.572h.446ZM14.218 3.574v.235a.633.633 0 0 1 .546-.287c.137 0 .254.035.349.105a.432.432 0 0 1 .159.21c.03.085.045.204.045.358V5.25h-.445v-.963a.722.722 0 0 0-.028-.237.211.211 0 0 0-.089-.105.321.321 0 0 0-.165-.042.356.356 0 0 0-.185.049.306.306 0 0 0-.123.134.738.738 0 0 0-.045.297v.864h-.446V3.574h.427ZM17.235 3.569v1.48c0 .131-.008.236-.025.315a.654.654 0 0 1-.085.215c-.129.205-.361.308-.695.308-.466 0-.72-.176-.764-.528h.449c.031.14.139.211.325.211.142 0 .24-.04.297-.12.044-.064.066-.166.066-.308l.002-.208a.56.56 0 0 1-.498.265.627.627 0 0 1-.503-.221c-.127-.15-.191-.352-.191-.606s.064-.458.191-.612a.644.644 0 0 1 .521-.238c.112 0 .205.021.28.063a.596.596 0 0 1 .206.211v-.227h.424Zm-.811.317a.315.315 0 0 0-.285.157.6.6 0 0 0-.078.32c0 .164.038.289.114.374a.323.323 0 0 0 .257.114.328.328 0 0 0 .3-.168.632.632 0 0 0 .077-.326c0-.158-.039-.28-.118-.366a.346.346 0 0 0-.267-.105Z" fill="#fff"/></g><defs><clipPath id="a"><path fill="#fff" d="M0 0h24v24H0z"/></clipPath></defs></svg>
